X:28
T: Sasha
B: From Bob Dalsemer, Folk Dance Fun
M: 2/4
L: 1/8
K: Dmin
"Dm" AA z2 | AA z2 | A2 A2 | A2 z2 |: "Dm" AA AF | AA AF |"A7" EE A>G |"Dm" FD D2 :|
|:"Gm" B2 B2 |"Dm" A2 A2 |"A7" AG FE |"Dm" D2 D2 :|\
[K:D]\
|: "D" F2 A2 | d3 c | dc BA |"A7" G3 F |
"A7" E2 G2 | c3 B |[1 "A7"cA Bc |"D" F3 E :|[2 "A7" cA Bc |"D" d2 d2 |]
